!!!COM: Nilo Soruco
!!!OTL: Moto Mendez
**kern
*I"Guitarra acústica
*I'Guit. ac.
!!pagebreak:original
*clefG2
*Trd0c0
*k[]
*C:
*M6/8
=1
!LO:TX:t=[quarter]=120
8ccL
8ee
8ddJ
8ccL
8b
8aJ
=2
2.g
=3
8gL
8g
8f#XJ
8gL
8a
8bJ
=4
2.cc
=5:|!
4.cc
8r
4b
=6
4.cc
8r
4b
=7
2.cc
=8!|:
2gg
4gg
!!linebreak:original
=9
2.ff
=10
8ddL
8ff
8eeJ
8dd
4gg
=11
2.ee
=12
8ccL
8cc
8ccJ
8cc
4cc
=13
8ddL
8dd
8ddJ
8ee
4ff
=14
8ggL
8ff
8eeJ
8ee
4dd
=15
2.cc
=16
8ccL
8cc
8ccJ
8cc
4cc
!!linebreak:original
=17
8ddL
8dd
8ddJ
8ee
4ff
=18
8ggL
8ff
8eeJ
8ee
4dd
=19
!LO:TX:a:B:t=Fine
2.cc
=20:|!
8ccL
8dd
8eeJ
8cc
4dd
=21
2.b
=22
8ddL
8ee
8ffJ
8dd
4aa
!!linebreak:original
=23
2.gg
=24
8ccL
8cc
8ccJ
8ccL
8cc
8ccJ
=25
8ddL
8dd
8ddJ
8eeL
8ff
8ffJ
=26
8ggL
8ff
8eeJ
8ee
4dd
=27
!LO:TX:a:B:t=D.S. al Fine
2.cc
=:|!
*-